X: 1
T:Garry Owen
M:6/8
L:1/8
K:D
d | BAG FED | F2 F F2 d | BAG FED | E2 E E2 d | BAG FED |
F2 F F2 A | ABc dAF |  [1 E2 E E2 d | [2 E2 E E2 (F/2G/2) :|
(A2 F) (A2 F) | (A2 F) (Adc) | (B2 G) (B2 G) | (B2 G) B2 c |
d2 e f2 e | dcB A2 A |  [1 ABc dAF | E2 E E2 F/2G/2 |
[2 ABc cde | d2 d d2 z :|
